icons/src/scalable/default/devices/input-tablet-symbolic.svg

<svg xmlns="http://www.w3.org/2000/svg" viewBox="0 0 16 16">
  <defs id="defs3051">
    <style type="text/css" id="current-color-scheme">
      .ColorScheme-Text {
        color:#4d4d4d;
      }
      </style>
  </defs>
 <path 
     style="fill:#bebebe;fill-opacity:1;stroke:none" 
     class="ColorScheme-Text"
     d="M 0.94921875 1.0039062 C 0.33961875 0.98400625 -0.08011125 1.5913263 0.01171875 2.1601562 C 0.01471875 5.8239463 0.00071875 9.4965763 0.01171875 13.160156 C 0.05301875 13.753066 0.68606875 14.086696 1.2304688 14.003906 C 5.2148487 14.000906 9.1837888 14.015306 13.167969 14.003906 C 13.760879 13.962606 14.094509 13.329556 14.011719 12.785156 C 14.011799 10.816396 14.011419 8.8476763 14.011719 6.8789062 L 12.011719 8.8789062 C 12.008719 9.9167163 12.011719 10.956936 12.011719 12.003906 L 2.0117188 12.003906 L 2.0117188 3.0039062 L 12.011719 3.0039062 C 12.012119 3.0460063 12.011339 3.0868062 12.011719 3.1289062 L 13.574219 1.5664062 C 13.644419 1.4962063 13.714709 1.4352463 13.792969 1.3789062 C 13.650729 1.1783663 13.425179 1.0039062 13.011719 1.0039062 C 11.283589 1.0039163 7.3958187 1.0039862 0.94921875 1.0039062 z M 15.011719 2.0039062 C 14.734719 2.0039062 14.473719 2.1044063 14.292969 2.2851562 L 8.2929688 8.2851562 C 8.1122188 8.4659062 8.0117188 8.7269063 8.0117188 9.0039062 L 8.0117188 10.003906 L 9.0117188 10.003906 C 9.2887187 10.003906 9.5497188 9.9034062 9.7304688 9.7226562 L 15.730469 3.7226562 C 15.911219 3.5419063 16.011719 3.2809062 16.011719 3.0039062 C 16.011719 2.4499062 15.565719 2.0039062 15.011719 2.0039062 z "
     />
</svg>

<svg version="1.1" viewBox="0 0 16 16" xmlns="http://www.w3.org/2000/svg">
 <path d="m0.94922 1.0039c-0.6096-0.0199-1.0293 0.58742-0.9375 1.1562 3e-3 3.6638-0.011 7.3364 0 11 0.0413 0.59291 0.67435 0.92654 1.2188 0.84375 3.9844-3e-3 7.9533 0.0114 11.938 0 0.59291-0.0413 0.92654-0.67435 0.84375-1.2188 8e-5 -1.9688-3e-4 -3.9375 0-5.9062l-2 2c-3e-3 1.0378 0 2.078 0 3.125h-10v-9h10c4e-4 0.0421-3.8e-4 0.0829 0 0.125l1.5625-1.5625c0.0702-0.0702 0.14049-0.13116 0.21875-0.1875-0.14224-0.20054-0.36779-0.375-0.78125-0.375-1.7281 1.01e-5 -5.6159 8e-5 -12.063 0zm14.063 1c-0.277 0-0.538 0.1005-0.71875 0.28125l-6 6c-0.18075 0.18075-0.28125 0.44175-0.28125 0.71875v1h1c0.277 0 0.538-0.1005 0.71875-0.28125l6-6c0.18075-0.18075 0.28125-0.44175 0.28125-0.71875 0-0.554-0.446-1-1-1z" fill="#bebebe"/>
</svg>
